icon_installer/data/icons/scalable/actions/show-larger-brush-symbolic.svg

<?xml version="1.0" encoding="UTF-8"?>
<svg height="16px" viewBox="0 0 16 16" width="16px" xmlns="http://www.w3.org/2000/svg">
    <g fill="#222222">
        <path d="m 7.996094 0 c -1.109375 0 -2 0.890625 -2 2 v 3.003906 c 0 0.632813 -0.480469 0.996094 -1 0.996094 h -1 c -1.109375 0 -2 0.890625 -2 2 v 1 h 12 v -1 c 0 -1.109375 -0.894532 -2 -2 -2 h -0.976563 c -0.53125 0 -1.023437 -0.359375 -1.023437 -1 v -3 c 0 -1.109375 -0.894532 -2 -2 -2 z m 0 1.40625 c 0.324218 0 0.59375 0.265625 0.59375 0.59375 s -0.269532 0.59375 -0.59375 0.59375 c -0.328125 0 -0.59375 -0.265625 -0.59375 -0.59375 s 0.265625 -0.59375 0.59375 -0.59375 z m 0 0"/>
        <path d="m 2 10 h 12 l -0.800781 5.003906 c -0.199219 0.820313 -0.699219 0.996094 -1.246094 0.996094 h -1.953125 v -3 l -1.125 3 h -1.847656 l -0.027344 -3 l -1.035156 3 h -0.964844 v -1.5 l -1 1.5 h -3 l 0.210938 -1.046875 z m 0 0"/>
    </g>
</svg>

<svg xmlns="http://www.w3.org/2000/svg" width="16" height="16"><path fill="#222" d="M7.996 0c-1.11 0-2 .89-2 2v3.004c0 .633-.48.996-1 .996h-1c-1.11 0-2 .89-2 2v1h12V8c0-1.11-.894-2-2-2h-.976c-.532 0-1.024-.36-1.024-1V2c0-1.11-.894-2-2-2zm0 1.406c.324 0 .594.266.594.594s-.27.594-.594.594a.593.593 0 1 1 0-1.188zM2 10h12l-.8 5.004c-.2.82-.7.996-1.247.996H10v-3l-1.125 3H7.027L7 13l-1.035 3H5v-1.5L4 16H1l.21-1.047zm0 0"/></svg>
